src/assets/svg/smg.svg

<svg width="139" height="17" viewBox="0 0 139 17" fill="none" xmlns="http://www.w3.org/2000/svg">
<path d="M10.3939 2.27356L8.54557 3.90921C8.1094 3.30947 7.47149 3.0096 6.63186 3.0096C6.19569 3.0096 5.79222 3.12955 5.42148 3.36944C5.06163 3.59844 4.88171 3.94192 4.88171 4.3999C4.88171 4.70523 4.99621 4.95603 5.2252 5.15231C5.46509 5.34858 5.83584 5.53396 6.33744 5.70843C7.39516 6.07917 8.18573 6.5317 8.70914 7.06602C9.24345 7.58943 9.51061 8.27095 9.51061 9.11058C9.51061 9.77575 9.36885 10.37 9.08534 10.8934C8.80183 11.4059 8.42017 11.8094 7.94038 12.1038C7.47149 12.3982 6.96444 12.6163 6.41922 12.7581C5.87401 12.9107 5.31243 12.9871 4.7345 12.9871C3.87306 12.9871 3.04433 12.8344 2.24831 12.5291C1.4632 12.2129 0.847103 11.7658 0.400024 11.1879L2.41188 9.55221C2.64087 9.90115 2.9789 10.1847 3.42598 10.4027C3.87306 10.6208 4.32559 10.7299 4.78357 10.7299C5.30698 10.7299 5.74861 10.6154 6.10845 10.3864C6.46829 10.1465 6.64822 9.7921 6.64822 9.32322C6.64822 8.95247 6.49556 8.64715 6.19023 8.40725C5.89582 8.16736 5.44874 7.94382 4.849 7.73663C3.97665 7.44222 3.30058 7.06602 2.82079 6.60804C2.341 6.13915 2.1011 5.47943 2.1011 4.6289C2.1011 3.47303 2.54818 2.54617 3.44234 1.84829C4.33649 1.1395 5.44874 0.785113 6.77907 0.785113C7.47695 0.785113 8.15847 0.921418 8.82363 1.19403C9.4997 1.45573 10.0231 1.81557 10.3939 2.27356Z" fill="white"/>
<path d="M14.8586 12.9053C13.6591 12.9053 12.6668 12.5782 11.8817 11.9239C11.1075 11.2696 10.7204 10.4027 10.7204 9.32322C10.7204 7.92746 11.1729 6.73889 12.0779 5.7575C12.9939 4.77611 14.1988 4.28541 15.6927 4.28541C16.914 4.28541 17.9172 4.61254 18.7023 5.2668C19.4874 5.91016 19.88 6.77705 19.88 7.86749C19.88 9.28505 19.422 10.4791 18.5061 11.4496C17.5901 12.4201 16.3743 12.9053 14.8586 12.9053ZM17.2957 8.14555C17.2957 7.64395 17.1376 7.23504 16.8213 6.91881C16.516 6.59168 16.1016 6.42811 15.5782 6.42811C14.9022 6.42811 14.3515 6.68437 13.9262 7.19687C13.501 7.70937 13.2883 8.32547 13.2883 9.04516C13.2883 9.54676 13.441 9.95567 13.7463 10.2719C14.0516 10.5881 14.466 10.7462 14.9894 10.7462C15.6764 10.7462 16.2325 10.4954 16.6578 9.99384C17.083 9.48133 17.2957 8.86524 17.2957 8.14555Z" fill="white"/>
<path d="M27.878 0.163565L27.4036 2.2572C27.1964 2.16997 26.9674 2.12635 26.7166 2.12635C25.9861 2.12635 25.5226 2.63885 25.3263 3.66386L25.1791 4.53076H27.0111L26.6676 6.49354H24.8684L23.7725 12.6763H21.2045L22.3004 6.49354H20.8119L21.1554 4.53076H22.5948L22.7584 3.69657C22.8565 3.17317 22.9874 2.70973 23.1509 2.30627C23.3145 1.90281 23.538 1.52116 23.8215 1.16131C24.116 0.790565 24.4976 0.507052 24.9665 0.310774C25.4463 0.103591 26.0079 0 26.6512 0C27.1528 0 27.5617 0.0545219 27.878 0.163565Z" fill="white"/>
<path d="M27.8552 6.5099H26.514L26.8738 4.53076H28.166L28.5422 2.3717H31.0938L30.7176 4.53076H32.4514L32.0916 6.5099H30.4068L29.818 9.69942C29.7962 9.8957 29.7853 10.0429 29.7853 10.141C29.7853 10.6099 30.0688 10.8444 30.6358 10.8444C30.8539 10.8444 31.0938 10.8117 31.3555 10.7462L31.1102 12.6272C30.7176 12.7908 30.2378 12.8726 29.6708 12.8726C27.9806 12.8726 27.1355 12.2129 27.1355 10.8934C27.1355 10.5663 27.1682 10.2555 27.2337 9.96112L27.8552 6.5099Z" fill="white"/>
<path d="M49.859 12.6763H47.1928L48.714 4.38355H48.6486L44.1505 12.6763H42.2368L40.6993 4.38355H40.6339L39.2436 12.6763H36.692L38.7365 1.09589H42.5476L43.8888 8.60353H43.9542L47.8635 1.09589H51.9035L49.859 12.6763Z" fill="white"/>
<path d="M60.6072 9.30686H54.768C54.757 9.35048 54.7516 9.39955 54.7516 9.45407C54.7516 9.89024 54.9315 10.2446 55.2914 10.5172C55.6512 10.7789 56.071 10.9098 56.5508 10.9098C57.3141 10.9098 57.9629 10.6263 58.4972 10.0593L60.1493 11.3514C59.1679 12.3982 57.8921 12.9217 56.3218 12.9217C55.1551 12.9217 54.1955 12.6 53.4431 11.9566C52.6907 11.3024 52.3145 10.4027 52.3145 9.25779C52.3145 7.85113 52.7779 6.67346 53.7048 5.72478C54.6316 4.7652 55.8039 4.28541 57.2214 4.28541C58.3119 4.28541 59.1842 4.59073 59.8385 5.20137C60.4927 5.80111 60.8199 6.64075 60.8199 7.72028C60.8199 8.21097 60.749 8.73984 60.6072 9.30686ZM58.4809 7.70392C58.4918 7.62759 58.4972 7.51855 58.4972 7.37679C58.4972 7.00604 58.3609 6.70617 58.0883 6.47718C57.8266 6.23729 57.4668 6.11734 57.0088 6.11734C56.4745 6.11734 56.022 6.28636 55.6512 6.62439C55.2805 6.95152 55.046 7.31137 54.9479 7.70392H58.4809Z" fill="white"/>
<path d="M68.9804 5.57757L69.88 0.310774H72.497L70.3052 12.6763H67.9008L68.0971 11.5641H68.048C67.4374 12.4364 66.516 12.8726 65.2838 12.8726C64.2479 12.8726 63.4246 12.5509 62.814 11.9075C62.2142 11.2533 61.9143 10.4082 61.9143 9.37229C61.9143 7.96563 62.3396 6.7716 63.1902 5.79021C64.0516 4.80882 65.1257 4.31812 66.4124 4.31812C67.6228 4.31812 68.4679 4.73794 68.9477 5.57757H68.9804ZM64.515 9.0288C64.515 9.5304 64.6622 9.94477 64.9567 10.2719C65.2511 10.5881 65.6655 10.7462 66.1998 10.7462C66.854 10.7462 67.3992 10.49 67.8354 9.97748C68.2825 9.46497 68.506 8.85433 68.506 8.14555C68.506 7.64395 68.3479 7.23504 68.0317 6.91881C67.7264 6.59168 67.3175 6.42811 66.8049 6.42811C66.1289 6.42811 65.5782 6.67891 65.1529 7.18051C64.7277 7.67121 64.515 8.2873 64.515 9.0288Z" fill="white"/>
<path d="M75.1018 12.6763H72.5011L73.9241 4.53076H76.5575L75.1018 12.6763ZM77.1136 1.79922C77.1136 2.23539 76.9664 2.60614 76.672 2.91146C76.3885 3.21678 76.0287 3.36944 75.5925 3.36944C75.1781 3.36944 74.8346 3.24404 74.562 2.99324C74.3003 2.74244 74.1695 2.43167 74.1695 2.06092C74.1695 1.62475 74.3167 1.254 74.6111 0.948679C74.9164 0.643357 75.2872 0.490695 75.7234 0.490695C76.1268 0.490695 76.4594 0.616095 76.7211 0.866895C76.9828 1.1177 77.1136 1.42847 77.1136 1.79922Z" fill="white"/>
<path d="M85.3564 6.91881C85.3564 7.25684 85.3237 7.58943 85.2583 7.91656L84.7022 11.0897C84.5931 11.7113 84.5386 12.2401 84.5386 12.6763H82.216C82.216 12.4691 82.2378 12.1802 82.2814 11.8094H82.2487C81.649 12.5182 80.8202 12.8726 79.7625 12.8726C79.0864 12.8726 78.4976 12.6981 77.996 12.3492C77.4944 12.0002 77.2436 11.455 77.2436 10.7135C77.2436 8.59808 79.1082 7.54036 82.8375 7.54036C82.8593 7.40951 82.8702 7.2841 82.8702 7.16416C82.8702 6.55351 82.445 6.24819 81.5944 6.24819C80.842 6.24819 80.1278 6.50444 79.4517 7.01695L78.3722 5.51215C78.852 5.1305 79.4081 4.83063 80.0406 4.61254C80.6839 4.39445 81.3218 4.28541 81.9543 4.28541C82.9793 4.28541 83.8026 4.50895 84.4241 4.95603C85.0457 5.3922 85.3564 6.04646 85.3564 6.91881ZM82.6903 9.11058H82.4613C80.5749 9.11058 79.6317 9.50314 79.6317 10.2883C79.6317 10.8444 79.9915 11.1224 80.7112 11.1224C81.2019 11.1224 81.6163 10.9698 81.9543 10.6645C82.3032 10.3591 82.5213 9.97203 82.6085 9.50314L82.6903 9.11058Z" fill="white"/>
<path d="M96.9139 10.6154C97.6008 10.5936 98.1624 10.4791 98.5986 10.2719L98.9748 8.09648H96.7176L97.1265 5.85564H101.886L100.823 11.973C99.5255 12.649 98.1024 12.9871 96.554 12.9871C94.8856 12.9871 93.5444 12.5345 92.5303 11.6295C91.5271 10.7135 91.0255 9.48678 91.0255 7.94927C91.0255 5.94287 91.6798 4.24724 92.9883 2.86239C94.2968 1.47754 95.927 0.785113 97.8789 0.785113C98.8058 0.785113 99.6399 0.932321 100.381 1.22674C101.134 1.52116 101.717 1.94643 102.132 2.50255L100.152 4.28541C99.6399 3.54391 98.8657 3.17317 97.8298 3.17317C96.7176 3.17317 95.7744 3.61479 95.0001 4.49804C94.2368 5.37039 93.8552 6.41721 93.8552 7.63849C93.8552 8.52175 94.1223 9.24144 94.6567 9.79756C95.2019 10.3428 95.9543 10.6154 96.9139 10.6154Z" fill="white"/>
<path d="M106.483 5.72478H106.516C107.115 4.78701 107.868 4.31812 108.773 4.31812C108.969 4.31812 109.154 4.33993 109.329 4.38355L108.904 6.70617C108.718 6.65165 108.5 6.62439 108.249 6.62439C107.573 6.62439 107.061 6.82067 106.712 7.21323C106.374 7.60578 106.167 8.03105 106.09 8.48903L105.354 12.6763H102.737L103.898 6.21548C104.008 5.67026 104.089 5.10869 104.144 4.53076H106.63C106.608 4.86879 106.559 5.2668 106.483 5.72478Z" fill="white"/>
<path d="M113.078 12.9053C111.878 12.9053 110.886 12.5782 110.101 11.9239C109.326 11.2696 108.939 10.4027 108.939 9.32322C108.939 7.92746 109.392 6.73889 110.297 5.7575C111.213 4.77611 112.418 4.28541 113.912 4.28541C115.133 4.28541 116.136 4.61254 116.921 5.2668C117.706 5.91016 118.099 6.77705 118.099 7.86749C118.099 9.28505 117.641 10.4791 116.725 11.4496C115.809 12.4201 114.593 12.9053 113.078 12.9053ZM115.515 8.14555C115.515 7.64395 115.357 7.23504 115.04 6.91881C114.735 6.59168 114.321 6.42811 113.797 6.42811C113.121 6.42811 112.571 6.68437 112.145 7.19687C111.72 7.70937 111.507 8.32547 111.507 9.04516C111.507 9.54676 111.66 9.95567 111.965 10.2719C112.271 10.5881 112.685 10.7462 113.208 10.7462C113.895 10.7462 114.451 10.4954 114.877 9.99384C115.302 9.48133 115.515 8.86524 115.515 8.14555Z" fill="white"/>
<path d="M124.494 11.4986H124.445C124.183 11.913 123.829 12.251 123.382 12.5127C122.935 12.7635 122.439 12.8889 121.893 12.8889C121.043 12.8889 120.399 12.6545 119.963 12.1856C119.527 11.7167 119.309 11.1224 119.309 10.4027C119.309 10.0647 119.336 9.7703 119.391 9.5195L120.258 4.53076H122.891L122.106 8.94702C122.062 9.25234 122.041 9.48133 122.041 9.63399C122.041 10.3646 122.4 10.7299 123.12 10.7299C123.567 10.7299 123.938 10.5609 124.232 10.2228C124.538 9.87389 124.739 9.44317 124.838 8.93066L125.623 4.53076H128.24L127.095 10.9916C126.986 11.5368 126.904 12.0984 126.849 12.6763H124.363C124.374 12.5782 124.396 12.3764 124.429 12.0711C124.461 11.7658 124.483 11.575 124.494 11.4986Z" fill="white"/>
<path d="M131.81 11.6622L130.959 16.6019H128.342L130.468 4.53076H132.955L132.758 5.65936H132.807C133.451 4.7761 134.339 4.33448 135.473 4.33448C136.52 4.33448 137.349 4.66161 137.96 5.31587C138.581 5.97013 138.892 6.80977 138.892 7.83477C138.892 9.25234 138.461 10.4518 137.6 11.4332C136.749 12.4146 135.675 12.9053 134.378 12.9053C133.167 12.9053 132.322 12.4909 131.842 11.6622H131.81ZM136.275 8.17826C136.275 7.67666 136.128 7.2623 135.833 6.93517C135.539 6.60803 135.13 6.44447 134.607 6.44447C133.952 6.44447 133.402 6.70617 132.955 7.22958C132.507 7.74209 132.284 8.35273 132.284 9.06151C132.284 9.56311 132.437 9.97748 132.742 10.3046C133.058 10.6208 133.478 10.7789 134.001 10.7789C134.677 10.7789 135.223 10.5336 135.637 10.0429C136.062 9.5413 136.275 8.91976 136.275 8.17826Z" fill="white"/>
</svg>

<svg width="139" height="17" fill="none" xmlns="http://www.w3.org/2000/svg"><path d="M10.394 2.274L8.546 3.909c-.437-.6-1.075-.9-1.914-.9-.436 0-.84.12-1.21.36-.36.23-.54.573-.54 1.03 0 .306.114.557.343.753.24.197.61.382 1.112.556 1.058.371 1.849.824 2.372 1.358.534.523.802 1.205.802 2.045 0 .665-.142 1.259-.426 1.782a3.218 3.218 0 01-1.145 1.21 5.398 5.398 0 01-1.52.655 6.221 6.221 0 01-1.686.23c-.86 0-1.69-.154-2.486-.459-.785-.316-1.4-.763-1.848-1.341l2.012-1.636c.229.35.567.633 1.014.85.447.219.9.328 1.358.328.523 0 .965-.115 1.324-.344.36-.24.54-.594.54-1.063 0-.37-.152-.676-.458-.916-.294-.24-.741-.463-1.341-.67-.872-.295-1.548-.671-2.028-1.129-.48-.469-.72-1.129-.72-1.98 0-1.155.447-2.082 1.341-2.78C4.336 1.14 5.45.785 6.78.785c.698 0 1.38.136 2.045.409.676.262 1.2.622 1.57 1.08zM14.859 12.905c-1.2 0-2.192-.327-2.977-.981-.774-.654-1.162-1.521-1.162-2.6 0-1.397.453-2.585 1.358-3.566.916-.982 2.12-1.473 3.615-1.473 1.221 0 2.224.328 3.01.982.784.643 1.177 1.51 1.177 2.6 0 1.418-.458 2.612-1.374 3.583-.916.97-2.132 1.455-3.647 1.455zm2.437-4.76c0-.501-.158-.91-.475-1.226-.305-.327-.72-.49-1.243-.49-.676 0-1.226.255-1.652.768-.425.512-.638 1.128-.638 1.848 0 .502.153.91.458 1.227.306.316.72.474 1.243.474.687 0 1.244-.25 1.669-.752.425-.513.638-1.129.638-1.848zM27.878.164l-.474 2.093a1.753 1.753 0 00-.687-.13c-.73 0-1.194.512-1.39 1.537l-.148.867h1.832l-.343 1.963h-1.8l-1.095 6.182h-2.569L22.3 6.494h-1.488l.343-1.963h1.44l.163-.834c.099-.524.23-.987.393-1.39a4.7 4.7 0 01.67-1.146c.295-.37.677-.654 1.145-.85C25.447.104 26.009 0 26.651 0c.502 0 .91.055 1.227.164z" fill="#fff"/><path d="M27.855 6.51h-1.341l.36-1.98h1.292l.376-2.158h2.552l-.376 2.159h1.733l-.36 1.979h-1.684l-.589 3.19a4.385 4.385 0 00-.033.441c0 .469.284.703.85.703.219 0 .459-.032.72-.098l-.245 1.881c-.392.164-.872.246-1.44.246-1.69 0-2.535-.66-2.535-1.98 0-.327.033-.638.099-.932l.621-3.451zM49.859 12.676h-2.666l1.521-8.292h-.065l-4.498 8.292h-1.914l-1.538-8.292h-.065l-1.39 8.292h-2.552l2.044-11.58h3.812l1.34 7.508h.066l3.91-7.508h4.04l-2.045 11.58zM60.607 9.307h-5.839a.603.603 0 00-.016.147c0 .436.18.79.54 1.063.36.262.779.393 1.259.393.763 0 1.412-.284 1.946-.85l1.652 1.291c-.981 1.047-2.257 1.57-3.827 1.57-1.167 0-2.127-.321-2.879-.964-.752-.655-1.128-1.554-1.128-2.7 0-1.406.463-2.584 1.39-3.532.927-.96 2.099-1.44 3.516-1.44 1.09 0 1.963.306 2.618.916.654.6.98 1.44.98 2.52 0 .49-.07 1.019-.212 1.586zm-2.126-1.603c.01-.076.016-.185.016-.327 0-.371-.136-.67-.409-.9-.261-.24-.621-.36-1.08-.36-.534 0-.986.17-1.357.507-.37.328-.605.687-.703 1.08h3.533zM68.98 5.578l.9-5.267h2.617l-2.192 12.365h-2.404l.196-1.112h-.049c-.61.872-1.532 1.309-2.764 1.309-1.036 0-1.86-.322-2.47-.965-.6-.655-.9-1.5-.9-2.536 0-1.406.426-2.6 1.276-3.582.862-.981 1.936-1.472 3.222-1.472 1.21 0 2.056.42 2.536 1.26h.032zm-4.465 3.45c0 .502.147.917.442 1.244.294.316.709.474 1.243.474.654 0 1.2-.256 1.635-.769.448-.512.671-1.123.671-1.831 0-.502-.158-.911-.474-1.227-.306-.327-.715-.49-1.227-.49-.676 0-1.227.25-1.652.752-.425.49-.638 1.106-.638 1.848zM75.102 12.676h-2.6l1.422-8.145h2.633l-1.455 8.145zM77.114 1.8c0 .436-.148.807-.442 1.112a1.409 1.409 0 01-1.08.458c-.414 0-.757-.125-1.03-.376a1.24 1.24 0 01-.392-.932c0-.436.147-.807.441-1.112A1.514 1.514 0 0175.723.49c.404 0 .736.125.998.376.262.25.393.561.393.932zM85.356 6.919c0 .338-.032.67-.098.998l-.556 3.173a9.411 9.411 0 00-.163 1.586h-2.323c0-.207.022-.496.065-.867h-.032c-.6.71-1.429 1.064-2.486 1.064-.677 0-1.265-.175-1.767-.524-.502-.349-.752-.894-.752-1.636 0-2.115 1.864-3.173 5.594-3.173a2.29 2.29 0 00.032-.376c0-.61-.425-.916-1.276-.916-.752 0-1.466.256-2.142.769l-1.08-1.505a5.571 5.571 0 011.669-.9 5.932 5.932 0 011.913-.327c1.025 0 1.849.224 2.47.671.622.436.932 1.09.932 1.963zM82.69 9.11h-.229c-1.886 0-2.83.392-2.83 1.177 0 .556.36.834 1.08.834.49 0 .905-.152 1.243-.457.35-.306.567-.693.655-1.162l.081-.392zM96.914 10.615c.687-.021 1.248-.136 1.685-.343l.376-2.176h-2.257l.408-2.24h4.76l-1.063 6.117c-1.297.676-2.72 1.014-4.269 1.014-1.668 0-3.01-.453-4.024-1.357-1.003-.917-1.505-2.143-1.505-3.68 0-2.007.655-3.703 1.963-5.088 1.309-1.384 2.939-2.077 4.89-2.077.928 0 1.762.147 2.503.442.753.294 1.336.72 1.751 1.276l-1.98 1.782c-.512-.741-1.286-1.112-2.322-1.112-1.112 0-2.056.442-2.83 1.325-.763.872-1.145 1.92-1.145 3.14 0 .884.267 1.603.802 2.16.545.545 1.297.817 2.257.817zM106.483 5.725h.033c.599-.938 1.352-1.407 2.257-1.407.196 0 .381.022.556.066l-.425 2.322a2.338 2.338 0 00-.655-.082c-.676 0-1.188.197-1.537.59a2.598 2.598 0 00-.622 1.275l-.736 4.187h-2.617l1.161-6.46c.11-.546.191-1.107.246-1.685h2.486a12.32 12.32 0 01-.147 1.194zM113.078 12.905c-1.2 0-2.192-.327-2.977-.981-.775-.654-1.162-1.521-1.162-2.6 0-1.397.453-2.585 1.358-3.566.916-.982 2.121-1.473 3.615-1.473 1.221 0 2.224.328 3.009.982.785.643 1.178 1.51 1.178 2.6 0 1.418-.458 2.612-1.374 3.583-.916.97-2.132 1.455-3.647 1.455zm2.437-4.76c0-.501-.158-.91-.475-1.226-.305-.327-.719-.49-1.243-.49-.676 0-1.226.255-1.652.768-.425.512-.638 1.128-.638 1.848 0 .502.153.91.458 1.227.306.316.72.474 1.243.474.687 0 1.243-.25 1.669-.752.425-.513.638-1.129.638-1.848zM124.494 11.499h-.049a3.065 3.065 0 01-1.063 1.014 2.99 2.99 0 01-1.489.376c-.85 0-1.494-.234-1.93-.703-.436-.47-.654-1.064-.654-1.783 0-.338.027-.633.082-.883l.867-4.99h2.633l-.785 4.417a5.245 5.245 0 00-.065.687c0 .73.359 1.096 1.079 1.096.447 0 .818-.17 1.112-.507.306-.35.507-.78.606-1.292l.785-4.4h2.617l-1.145 6.46a16.623 16.623 0 00-.246 1.685h-2.486l.066-.605c.032-.305.054-.496.065-.572zM131.81 11.662l-.851 4.94h-2.617l2.126-12.071h2.487l-.197 1.128h.049c.644-.883 1.532-1.325 2.666-1.325 1.047 0 1.876.328 2.487.982.621.654.932 1.494.932 2.519 0 1.417-.431 2.617-1.292 3.598-.851.982-1.925 1.472-3.222 1.472-1.211 0-2.056-.414-2.536-1.243h-.032zm4.465-3.484c0-.501-.147-.916-.442-1.243-.294-.327-.703-.49-1.226-.49-.655 0-1.205.261-1.652.785-.448.512-.671 1.123-.671 1.832 0 .501.153.915.458 1.243.316.316.736.474 1.259.474.676 0 1.222-.245 1.636-.736.425-.502.638-1.123.638-1.865z" fill="#fff"/></svg>
